X:1
T:Your Daughters and Your Sons
M:2/4
L:1/8
K:G
 B| B3/2 B/2 AB| cB AG| A3/2 A/2 DD| D3 D| G/2 G3/2 AB| BG c3/2 B/2|\
 A3/2 G/2 GF| G3 B/2B/2| B/2 G3/2 AB| cB A3/2 G/2| A3/2 A/2 DD| D3 D/2D/2|\
 G3/2 G/2 AB| B/2 G3/2 c3/2 B/2| A3/2 G/2 GF| G4-| G2 BB| A3/2 A/2 DD|\
 D3 c/2c/2| B3/2 A/2 Gc| A4-| A3 B| B3/2 B/2 BB| cB AG| A3/2 G/2 GF|\
 G3||
